X:1
T:Title
%%score ( 1 2 ) { 3 | 4 }
L:1/8
Q:1/4=93
M:3/4
K:C
V:1 treble nm="Drawbar Organ, Soprano"
V:2 treble 
V:3 bass nm="Choir Pad, Bass"
V:4 bass 
V:1
 [CE]2 [CE][CE] [CE]2 | [CG]2 [B,F][B,F] [B,F]2 | [B,F]2 [DF][DF] [DF]2 | [FA]2 [EG][EG] [EG]2 | %4
w: By~Joseph~Lincoln~Hall * * *||||
 [EG]2 [EG][EG] [EG]2 | [D^G]2 [CB][CA] [FA]2 | [FA]2 [^FA][FA] [FB]2 | [^Fc]2 [=Fd][FG] [FG]2 | %8
w: ||||
[M:4/4][Q:1/4=100] GG G2 G2 G2 | [Fd][Fd] [Fd]2 [E^c]2 [Fd]2 | dd d2 d2 d2 | %11
w: |||
 [Bf][Bf] [Bf]2 [_Be]2 [Bf]2 | GG G2 G2 A2 | A2 B2 B2 c2 | c2 z2 [Bf][Bf] [Bf]2 | %15
w: ||||
 [_Be]2 [=Bf]2 [_Be]2 [=Bf]2 |[M:12/8] z2 c- c3 z2 G- G3 | %17
w: ||
 z2 A- A2[K:bass] D- D2[K:treble] F- F3- | F2 d- d3 z2 B- B3 | z2 c- c2 d- d2 e- e3- | %20
w: |||
 e2 e- e3 z2 c- c3/2 z/ ^c- | c2 d- d3 z2 B- B3 | %22
w: ||
 [DFA][EFG][Ge]- [Ge]2 [Ge] [Gd][Gc][Ff]- [Ff]2 [Af] | %23
w: |
 [Ae][Ad][Gc]- [Gc]2 [FB]- [FB]2 [Ec]- [Ec]3- | [Ec]3 z3 z6 |] %25
w: ||
V:2
 x6 | x6 | x6 | x6 | x6 | x6 | x6 | x6 |[M:4/4] x8 | x8 | x8 | x8 | x8 | x8 | z2 d6 | x8 | %16
[M:12/8] z3 [EG][EG][EG] B .A2 [CE][CE][CE] | %17
 ^F .G2 [D=F] .[DF]2[K:bass] [F,A,] .[F,A,]2[K:treble] [A,C][A,C][A,C] | %18
 [A,C] .[A,C]2 [FB][FB][FB] ^c .d2 [DFG][DFG][DFG] | A .G2 [EG] .[EG]2 [GB] .[GB]2 [Gc][Gc][Gc] | %20
 [Gc][Gc][E^G] [EG][EG][EG] [EGB][EGd][EA] [EA][EA][EA] | %21
 [EA][EA][DA] [DA][DA][DA] [DFA][DFA=c][DF] [DF][DF][DF] | x12 | x12 | x12 |] %25
V:3
 G,2 G,G, G,2 | G,2 G,G, G,2 | G,2 B,B, B,2 | B,2[K:treble] CC C2 | C2 CC C2 | B,2 A,A, C2 | %6
 C2 CC B,2 | A,2 B,B, B,2 |[M:4/4] G,G, G,2 G,2 G,2 | B,B, B,2 _B,2 =B,2 | DD D2 D2 D2 | %11
 DD D2 ^C2 D2 | G,G, G,2 G,2 A,2 | A,2 B,2 B,2[K:treble] C2 | C2 D2 DD D2 | ^C2 D2 C2 D2 | %16
[M:12/8] z2 C- C2 C[K:bass] B,A,G,- G,2 G, | ^F,G,A,- A,2 D,- D,2 D,- D,3- | %18
 D,2[K:treble] D- D3 ^CDB,- B,3 | A,G,C- C2 D- D2 E- E3- | %20
 E2[K:bass] E,- E,2 ^G,- G,2 A,- A,2 =G,- | G,2 ^F,- F,2 D,- D,2 G,- G,2 B,- | %22
 B,2[K:treble] C- C3/2 z/ C CCC- C2 C | FFE- E2 D- D2 C- C3- | C3 z3 z6 |] %25
V:4
 C,2 C,C, C,2 | E,2 D,D, D,2 | D,2 G,G, G,2 | G,2 C,C, C,2 | C,2 C,C, C,2 | E,2 F,F, F,2 | %6
 F,2 D,D, D,2 | D,2 G,G, G,2 |[M:4/4] z8 | G,G, G,2 G,2 G,2 | z8 | G,G, G,2 G,2 G,2 | z8 | z8 | %14
 z4 G,G, G,2 | G,2 G,2 G,2 G,2 |[M:12/8] z12 | z12 | z12 | z12 | %20
 z2 E,,- E,,2 ^G,,- G,,2 A,,- A,,2 =G,,- | G,,2 ^F,,- F,,2 D,,- D,,2 G,,- G,,2 B,,- | %22
 B,,3 z2 _B, B,B,A,- A,2 F, | D,D,G,- G,2 G,- G,2 C,- C,3- | C,3 z3 z6 |] %25

